X:367
T: Flatterhaft (95b), S. 243
N: T0256
O: Luxemburg
S: Singendes Volk, Esch-Alzette 1937 posth.]
N: Feulen, hhh Nikolaus Ewen, 10.6.1935,
N: 1893 in Heffingen gelernt
R: Liebeslieder]
M: 3/4
L: 1/8
K: F
c2 | G4cB | AGA2
cc | B2B2d2 | c2z2
A2 | A2A2AA | Acc2
BA | G2c2B2 | A2z2

